X:0183
T:Lass if I come near you.
M:C
L:1/8
Q:1/4=120
I: :: ::
Z:Jack Campin * www.campin.me.uk * 2009
K:A Dorian
ABcd B2GB|ABcA a2ef|gage (d/c/B/A/) GB|Aedc B2A2:|
e2ce d2Bd|e2ce a2ef|gage (d/c/B/A/) GB|ABcd B2A2:|

